X:178
T:Mary Grace
R:Reel
O:Ireland
B:O'Neill's 1256
S:O'Neill's 1256
Z:Transcription, slight arr., chords:Mike Long
M:C|
L:1/8
K:G
B[|\
"Am"cA~A2 EA~A2|"G"BGdc BGG2|\
"Am"cA~A2 EA~A2|"C"cded "Am"cA AB|\
"Am"cA~A2 EA~A2|"G"BGdc BGG2|\
"Am"A^GAB cBcd|
"G"egdB {c}"Am"BA A2\
|:"G"Bdef gfgd|BG~G2 DG~G2|\
Bdef g2fg|[1 "C"egdB {c}"D"BAA2:|[2 "D"abaf "C"gfed|]
